X: 3325
T: Belle Of The South Shore
R: barndance
M: 4/4
K: Gmajor
G3A BGEG|cdec d4|BcdB GDE E/F/G|cBAG E/F/G A2|
BdcA BGD2|cdec d4|cBcd cBAG|1 DFGA BGGF:|2 DFGA BGGB||
d4 cBAG|E/F/G AD B4|BD E/F/G cBAG|AD E/F/G A2dc|BcdG e2cG|
E/F/G AD B2D|cDEG cdBG|1 E/F/G AB G3B:|2 E/F/G AB GdBA||

